addons/meshbuilder/mesh_builder_combiner/icon.svg

<svg height="16" viewBox="0 0 16 16" width="16" xmlns="http://www.w3.org/2000/svg"><path d="m12 9c-.55401 0-1 .44599-1 1v1h2v2h1c.55401 0 1-.44599 1-1v-2c0-.55401-.44599-1-1-1zm1 4h-2v-2h-1c-.55401 0-1 .44599-1 1v2c0 .55401.44599 1 1 1h2c.55401 0 1-.44599 1-1z" fill="#5fb2ff"/><path d="m3 1c-1.1046 0-2 .89543-2 2h2zm2 0v2h2v-2zm4 0v2h2v-2zm4 0v2h2c0-1.1046-.89543-2-2-2zm-12 4v2h2v-2zm12 0v2h2v-2zm-12 4v2h2v-2zm0 4c0 1.1046.89543 2 2 2v-2zm4 0v2h2v-2z" fill="#fc7f7f"/></svg>

<?xml version="1.0" encoding="UTF-8" standalone="no"?>
<svg
   height="80"
   viewBox="0 0 80 80"
   width="80"
   version="1.1"
   id="svg5747"
   sodipodi:docname="icon.svg"
   inkscape:version="1.2.1 (9c6d41e410, 2022-07-14, custom)"
   xmlns:inkscape="http://www.inkscape.org/namespaces/inkscape"
   xmlns:sodipodi="http://sodipodi.sourceforge.net/DTD/sodipodi-0.dtd"
   xmlns="http://www.w3.org/2000/svg"
   xmlns:svg="http://www.w3.org/2000/svg">
  <defs
     id="defs5751" />
  <sodipodi:namedview
     id="namedview5749"
     pagecolor="#ffffff"
     bordercolor="#666666"
     borderopacity="1.0"
     inkscape:showpageshadow="2"
     inkscape:pageopacity="0.0"
     inkscape:pagecheckerboard="0"
     inkscape:deskcolor="#d1d1d1"
     showgrid="false"
     inkscape:zoom="4.7398252"
     inkscape:cx="-11.920271"
     inkscape:cy="21.414292"
     inkscape:window-width="1920"
     inkscape:window-height="1011"
     inkscape:window-x="0"
     inkscape:window-y="32"
     inkscape:window-maximized="1"
     inkscape:current-layer="svg5747" />
  <g
     id="g5872"
     transform="scale(5)">
    <path
       d="m 12,9 c -0.55401,0 -1,0.44599 -1,1 v 1 h 2 v 2 h 1 c 0.55401,0 1,-0.44599 1,-1 V 10 C 15,9.44599 14.55401,9 14,9 Z m 1,4 h -2 v -2 h -1 c -0.55401,0 -1,0.44599 -1,1 v 2 c 0,0.55401 0.44599,1 1,1 h 2 c 0.55401,0 1,-0.44599 1,-1 z"
       fill="#5fb2ff"
       id="path5743" />
    <path
       d="M 3,1 C 1.8954,1 1,1.89543 1,3 H 3 Z M 5,1 V 3 H 7 V 1 Z m 4,0 v 2 h 2 V 1 Z m 4,0 v 2 h 2 C 15,1.8954 14.10457,1 13,1 Z M 1,5 V 7 H 3 V 5 Z m 12,0 v 2 h 2 V 5 Z M 1,9 v 2 H 3 V 9 Z m 0,4 c 0,1.1046 0.89543,2 2,2 v -2 z m 4,0 v 2 h 2 v -2 z"
       fill="#fc7f7f"
       id="path5745" />
  </g>
</svg>
